assets/images/svg/weapon.svg

<svg width="25" height="31" viewBox="0 0 25 31" fill="none" xmlns="http://www.w3.org/2000/svg">
<path d="M24.4929 0.272342C24.1481 -0.072633 23.589 -0.072633 23.2441 0.272342L22.6457 0.871014L22.0472 0.272342C21.7024 -0.0725741 21.1432 -0.0725741 20.7984 0.272342C20.4535 0.617259 20.4535 1.17659 20.7984 1.52157L21.3968 2.12024L18.9836 4.53424C19.2522 4.66286 19.4999 4.83758 19.7164 5.05471C19.9263 5.26471 20.1196 5.48702 20.2963 5.71951L24.4929 1.52157C24.8378 1.17659 24.8378 0.617259 24.4929 0.272342Z" fill="white"/>
<path d="M17.2167 6.30175L8.7915 14.7298L12.7156 18.6551C13.8 19.74 15.5554 19.7397 16.6397 18.6552C16.9846 18.3102 16.9846 17.7509 16.6398 17.4059C16.295 17.061 15.7359 17.061 15.391 17.4058C14.9967 17.8002 14.3586 17.8001 13.9645 17.4059L18.4663 12.9026C20.2899 11.0786 20.2892 8.12615 18.4663 6.30252C18.1213 5.9566 17.5615 5.95672 17.2167 6.30175Z" fill="white"/>
<path d="M7.32914 16.3243C6.93477 17.5078 6.26017 18.5998 5.37818 19.482L0.935405 23.9262C0.590542 24.2712 0.590542 24.8305 0.935405 25.1755L5.66464 29.9062C5.83171 30.0733 6.05695 30.165 6.28902 30.165C6.63435 30.165 6.94902 29.9635 7.09272 29.6478L11.4666 19.9043L7.54267 15.9793C7.44729 16.0747 7.37324 16.192 7.32914 16.3243Z" fill="white"/>
</svg>

<svg width="25" height="31" fill="none" xmlns="http://www.w3.org/2000/svg"><path d="M24.493.272a.883.883 0 00-1.249 0l-.598.599-.599-.599a.883.883 0 10-1.249 1.25l.599.598-2.413 2.414c.268.129.516.304.732.52.21.21.404.433.58.666l4.197-4.198a.883.883 0 000-1.25zm-7.276 6.03L8.792 14.73l3.924 3.925a2.773 2.773 0 003.924 0 .884.884 0 00-1.249-1.25 1.008 1.008 0 01-1.427 0l4.502-4.502a4.666 4.666 0 000-6.6.883.883 0 00-1.25-.001zM7.33 16.324a8.12 8.12 0 01-1.952 3.158L.935 23.926a.884.884 0 000 1.25l4.73 4.73a.883.883 0 001.428-.258l4.374-9.744-3.924-3.925a.882.882 0 00-.214.345z" fill="#fff"/></svg>
